icons/vagrant-dark.svg

<svg width="256" height="256" viewBox="0 0 256 256" fill="none" xmlns="http://www.w3.org/2000/svg">
<path d="M196 0H60C26.8629 0 0 26.8629 0 60V196C0 229.137 26.8629 256 60 256H196C229.137 256 256 229.137 256 196V60C256 26.8629 229.137 0 196 0Z" fill="#282828"/>
<path d="M190.996 38L151.536 60.7919V74.7749L127.5 131.296L103.464 74.7749V60.7919L64.0036 38L40 51.8847V67.9635L93.4431 198.821L127.5 218.469L161.557 198.821L214.967 67.9635V51.8847L190.996 38Z" fill="#1868F2"/>
<path d="M215 51.8521L175.54 74.6112V88.6269L143.514 160.212L127.5 169.447V218.469L161.557 198.821L215 67.9636V51.8848V51.8521Z" fill="#0850C5"/>
<path d="M103.497 74.7427V60.7598L79.4932 74.6118V88.6275L111.552 160.212L127.566 150.978V131.264L103.529 74.7427H103.497Z" fill="#0850C5"/>
</svg>

<svg xmlns="http://www.w3.org/2000/svg" width="256" height="256" fill="none"><path fill="#282828" d="M196 0H60C26.863 0 0 26.863 0 60v136c0 33.137 26.863 60 60 60h136c33.137 0 60-26.863 60-60V60c0-33.137-26.863-60-60-60"/><path fill="#1868F2" d="m190.996 38-39.46 22.792v13.983L127.5 131.296l-24.036-56.521V60.792L64.004 38 40 51.885v16.078l53.443 130.858 34.057 19.648 34.057-19.648 53.41-130.858V51.885z"/><path fill="#0850C5" d="m215 51.852-39.46 22.76v14.015l-32.026 71.585-16.014 9.235v49.022l34.057-19.648L215 67.964zM103.497 74.743V60.76L79.493 74.612v14.016l32.059 71.584 16.014-9.234v-19.714l-24.037-56.521z"/></svg>
